!!!!SEGMENT: pl-wn--mus-iii-65-947-cim--023_sowinski-wojciech--swiety-wojciech-meczennik-no-21-recitativo-i-chor.krn
!!!cenid: 18xx:3616
!!!COM: Sowiński, Wojciech
!!!COM-rismID: pe30008543
!!!CDT: ~1803-1880/03/05
!!!CNT:
!!!GTL: Święty Wojciech męczennik
!!!OTL: No. 21. Recitativo i chór
!!!PDT: 1877
!!!AGN:
!!!SMS-siglum: PL-Wn
!!!SMS-shelfmark: Mus.III.65.947 Cim.
!!!SMS-shelfwork: 023 G
!!!SMS-variant:
!!!SMS-altvar:
!!!NIFC-rismSourceID:
!!!NIFC-islandoraID:
!!!URL-pdf-islandora:
!!!URL-scan: https://polona.pl/item/swiety-wojciech-meczennik-oratorjo-w-trzech-czesciach-dzielo-66-spiew-z-fortepianem,MTkzODI1Mzc/242/#item @EN{Scan on Polona} @PL{Skany w portalu Polona}
!!!ONB-nifc: UWAGA: oratorium zawiera w źródle 28 numerów podzielonych na 30 plików (rozdzielenie w No. 6 - osobno Recitativo oraz Aria matki i No. 10 - osobno Recitativo, arja i chór oraz Sen). Polecam widok miniatur na Polonie. Uwaga co do obsady: prosimy umieszczać tylko partie występujące w danym numerze (nie całą obsadę oratorium)
!!!AIN: 1 alto 1 bass 2 piano 1 soprn 2 tenor
!!!key:
**kern	**dynam	**kern	**dynam	**kern	**text	**dynam	**kern	**text	**dynam	**kern	**text	**dynam	**kern	**text	**dynam	**kern	**text	**dynam
*part7	*part7	*part6	*part6	*part5	*part5	*part5	*part4	*part4	*part4	*part3	*part3	*part3	*part2	*part2	*part2	*part1	*part1	*part1
*staff7	*	*staff6	*	*staff5	*staff5	*	*staff4	*staff4	*	*staff3	*staff3	*	*staff2	*staff2	*	*staff1	*staff1	*
*I"Piano	*	*I"Piano	*	*I"Basso	*	*	*I"Tenore	*	*	*I"Alto	*	*	*I"Soprano	*	*	*I"Tenor Solo	*	*
*I'pf	*	*I'pf	*	*I'B	*	*	*I'T	*	*	*I'A	*	*	*I'S	*	*	*I'T	*	*
*ICklav	*	*ICklav	*	*ICvox	*	*	*ICvox	*	*	*ICvox	*	*	*ICvox	*	*	*ICvox	*	*
*Ipiano	*	*Ipiano	*	*Ibass	*	*	*Itenor	*	*	*Ialto	*	*	*Isoprn	*	*	*Itenor	*	*
*clefF4	*	*clefG2	*	*clefF4	*	*	*clefF4	*	*	*clefG2	*	*	*clefG2	*	*	*clefG2	*	*
*k[f#]	*	*k[f#]	*	*k[f#]	*	*	*k[f#]	*	*	*k[f#]	*	*	*k[f#]	*	*	*k[f#]	*	*
*d:	*	*d:	*	*d:	*	*	*d:	*	*	*d:	*	*	*d:	*	*	*d:	*	*
*M4/4	*	*M4/4	*	*M4/4	*	*	*M4/4	*	*	*M4/4	*	*	*M4/4	*	*	*M4/4	*	*
*met(c)	*	*met(c)	*	*met(c)	*	*	*met(c)	*	*	*met(c)	*	*	*met(c)	*	*	*met(c)	*	*
=1	=1	=1	=1	=1	=1	=1	=1	=1	=1	=1	=1	=1	=1	=1	=1	=1	=1	=1
!	!	!	!LO:DY:b	!	!	!	!	!	!	!	!	!	!	!	!	!	!	!
!	!	!	!LO:HP:b	!	!	!	!	!	!	!	!	!	!	!	!	!	!	!
16E\LL	.	16e/LL	f <	1ryy	.	.	1ryy	.	.	1ryy	.	.	1ryy	.	.	2r	.	.
16D#X\	.	16d#X/	.	.	.	.	.	.	.	.	.	.	.	.	.	.	.	.
16E\	.	16e/	.	.	.	.	.	.	.	.	.	.	.	.	.	.	.	.
16D#\JJ	.	16d#/JJ	.	.	.	.	.	.	.	.	.	.	.	.	.	.	.	.
16E\LL	.	16e/LL	.	.	.	.	.	.	.	.	.	.	.	.	.	.	.	.
16F#\	.	16f#/	.	.	.	.	.	.	.	.	.	.	.	.	.	.	.	.
16G\	.	16g/	.	.	.	.	.	.	.	.	.	.	.	.	.	.	.	.
16F#\JJ	.	16f#/JJ	.	.	.	.	.	.	.	.	.	.	.	.	.	.	.	.
!	!	!	!	!	!	!	!	!	!	!	!	!	!	!	!	!LO:TX:a:i:t=BORUS.	!	!
4E\	.	4e/	[	.	.	.	.	.	.	.	.	.	.	.	.	4r	.	.
!	!	!	!	!	!	!	!	!	!	!	!	!	!	!	!	!	!	!LO:DY:a
4r	.	4r	.	.	.	.	.	.	.	.	.	.	.	.	.	8b\	Stój-	f
.	.	.	.	.	.	.	.	.	.	.	.	.	.	.	.	8b\	-cie,	.
=2	=2	=2	=2	=2	=2	=2	=2	=2	=2	=2	=2	=2	=2	=2	=2	=2	=2	=2
!	!	!	!	!	!	!	!	!	!	!	!	!	!	!	!	!LO:TX:a:i:t=recitativo.	!	!
1r	.	1r	.	1ryy	.	.	1ryy	.	.	1ryy	.	.	1ryy	.	.	4ee\	stój-	.
.	.	.	.	.	.	.	.	.	.	.	.	.	.	.	.	8ee\	-cie!	.
.	.	.	.	.	.	.	.	.	.	.	.	.	.	.	.	8ee\	kto	.
.	.	.	.	.	.	.	.	.	.	.	.	.	.	.	.	4ee\	przy	.
.	.	.	.	.	.	.	.	.	.	.	.	.	.	.	.	8.dd\	mnie	.
.	.	.	.	.	.	.	.	.	.	.	.	.	.	.	.	16cc\	się	.
=3	=3	=3	=3	=3	=3	=3	=3	=3	=3	=3	=3	=3	=3	=3	=3	=3	=3	=3
2r	.	2r	.	1ryy	.	.	1ryy	.	.	1ryy	.	.	1ryy	.	.	4b/	ru-	.
.	.	.	.	.	.	.	.	.	.	.	.	.	.	.	.	4a/	-szy,	.
8r	.	8r	.	.	.	.	.	.	.	.	.	.	.	.	.	2r	.	.
8A\L	.	16r	.	.	.	.	.	.	.	.	.	.	.	.	.	.	.	.
!	!	!	!LO:HP:b	!	!	!	!	!	!	!	!	!	!	!	!	!	!	!
.	.	16a\LL	<	.	.	.	.	.	.	.	.	.	.	.	.	.	.	.
8E\	.	16r	.	.	.	.	.	.	.	.	.	.	.	.	.	.	.	.
.	.	16cc\	.	.	.	.	.	.	.	.	.	.	.	.	.	.	.	.
8C\J	.	16r	.	.	.	.	.	.	.	.	.	.	.	.	.	.	.	.
.	.	16ee\JJ	[[	.	.	.	.	.	.	.	.	.	.	.	.	.	.	.
!!LO:LB:g=original	!	!	!	!	!	!	!	!	!	!	!	!	!	!	!	!	!	!
=4	=4	=4	=4	=4	=4	=4	=4	=4	=4	=4	=4	=4	=4	=4	=4	=4	=4	=4
4AA\ 4C 4E 4A	.	4a\ 4cc 4ee 4aa	.	1ryy	.	.	1ryy	.	.	1ryy	.	.	1ryy	.	.	4r	.	.
4r	.	4r	.	.	.	.	.	.	.	.	.	.	.	.	.	8r	.	.
.	.	.	.	.	.	.	.	.	.	.	.	.	.	.	.	8a/	pod	.
2r	.	2r	.	.	.	.	.	.	.	.	.	.	.	.	.	4.b-X\	mo-	.
.	.	.	.	.	.	.	.	.	.	.	.	.	.	.	.	8dd\	-jem	.
=5	=5	=5	=5	=5	=5	=5	=5	=5	=5	=5	=5	=5	=5	=5	=5	=5	=5	=5
2DD\ 2D	.	2G#X</ 2d 2fn	.	1ryy	.	.	1ryy	.	.	1ryy	.	.	1ryy	.	.	8.ffn\	wios-	.
.	.	.	.	.	.	.	.	.	.	.	.	.	.	.	.	16dd\	-łem	.
.	.	.	.	.	.	.	.	.	.	.	.	.	.	.	.	8dd\	pad-	.
.	.	.	.	.	.	.	.	.	.	.	.	.	.	.	.	8dd\	-nie	.
2r	.	2r	.	.	.	.	.	.	.	.	.	.	.	.	.	4.dd\	sam	.
.	.	.	.	.	.	.	.	.	.	.	.	.	.	.	.	8ee\	bez	.
=6	=6	=6	=6	=6	=6	=6	=6	=6	=6	=6	=6	=6	=6	=6	=6	=6	=6	=6
2r	.	2r	.	1ryy	.	.	1ryy	.	.	1ryy	.	.	1ryy	.	.	4dd\	du-	.
.	.	.	.	.	.	.	.	.	.	.	.	.	.	.	.	4cc#X\	-szy!	.
!	!	!LO:TX:b:i:t=presto.	!	!	!	!	!	!	!	!	!	!	!	!	!	!	!	!
!	!	!	!LO:DY:b	!	!	!	!	!	!	!	!	!	!	!	!	!	!	!
4AA\ 4A	.	8.e/ 8.a 8.cc#X	f	.	.	.	.	.	.	.	.	.	.	.	.	2r	.	.
.	.	16e/ 16a 16cc#	.	.	.	.	.	.	.	.	.	.	.	.	.	.	.	.
16D/LL	.	(<4f#/ [>4a [4dd	.	.	.	.	.	.	.	.	.	.	.	.	.	.	.	.
16AA/	.	.	.	.	.	.	.	.	.	.	.	.	.	.	.	.	.	.
16BB/	.	.	.	.	.	.	.	.	.	.	.	.	.	.	.	.	.	.
16C#X/JJ	.	.	.	.	.	.	.	.	.	.	.	.	.	.	.	.	.	.
=7	=7	=7	=7	=7	=7	=7	=7	=7	=7	=7	=7	=7	=7	=7	=7	=7	=7	=7
16D/LL	.	4.fn/) 4.a] 4.dd]	.	1ryy	.	.	1ryy	.	.	1ryy	.	.	1ryy	.	.	2r	.	.
16AA/	.	.	.	.	.	.	.	.	.	.	.	.	.	.	.	.	.	.
16BB/	.	.	.	.	.	.	.	.	.	.	.	.	.	.	.	.	.	.
16C#X/JJ	.	.	.	.	.	.	.	.	.	.	.	.	.	.	.	.	.	.
16D\LL	.	.	.	.	.	.	.	.	.	.	.	.	.	.	.	.	.	.
16C#\	.	.	.	.	.	.	.	.	.	.	.	.	.	.	.	.	.	.
16D\	.	(16ffn\LL	.	.	.	.	.	.	.	.	.	.	.	.	.	.	.	.
16E\JJ	.	16ee\JJ)	.	.	.	.	.	.	.	.	.	.	.	.	.	.	.	.
8Fn\	.	8dd\	.	.	.	.	.	.	.	.	.	.	.	.	.	4r	.	.
8r	.	8r	.	.	.	.	.	.	.	.	.	.	.	.	.	.	.	.
4r	.	4r	.	.	.	.	.	.	.	.	.	.	.	.	.	8r	.	.
.	.	.	.	.	.	.	.	.	.	.	.	.	.	.	.	8a/	Twe	.
!!LO:LB:g=original	!	!	!	!	!	!	!	!	!	!	!	!	!	!	!	!	!	!
=8	=8	=8	=8	=8	=8	=8	=8	=8	=8	=8	=8	=8	=8	=8	=8	=8	=8	=8
4r	.	2Fn</ 2A<	.	1ryy	.	.	1ryy	.	.	1ryy	.	.	1ryy	.	.	4.a/	i-	.
4DD/ 4D	.	.	.	.	.	.	.	.	.	.	.	.	.	.	.	.	.	.
.	.	.	.	.	.	.	.	.	.	.	.	.	.	.	.	8a/	-mie?	.
4r	.	2F#X</ 2A<	.	.	.	.	.	.	.	.	.	.	.	.	.	4.a/	ktoś	.
4CC/ 4C	.	.	.	.	.	.	.	.	.	.	.	.	.	.	.	.	.	.
.	.	.	.	.	.	.	.	.	.	.	.	.	.	.	.	8a/	ty	.
=9	=9	=9	=9	=9	=9	=9	=9	=9	=9	=9	=9	=9	=9	=9	=9	=9	=9	=9
2.BBB/ 2.BB	.	2.G</ 2.B< 2.d<	.	1ryy	.	.	1ryy	.	.	1ryy	.	.	1ryy	.	.	2dd\	jest?	.
!	!	!	!	!	!	!	!	!	!	!	!	!	!	!	!	!LO:TX:a:i:t=Ś. WOJCIECH	!	!
.	.	.	.	.	.	.	.	.	.	.	.	.	.	.	.	4r	.	.
*	*	*	*	*	*	*	*	*	*	*	*	*	*	*	*	*clefF4	*	*
4r	.	4r	.	.	.	.	.	.	.	.	.	.	.	.	.	8D\	Jam	.
.	.	.	.	.	.	.	.	.	.	.	.	.	.	.	.	8D\	jest	.
=10	=10	=10	=10	=10	=10	=10	=10	=10	=10	=10	=10	=10	=10	=10	=10	=10	=10	=10
!	!	!	!	!	!	!	!	!	!	!	!	!	!	!	!	!	!	!LO:DY:a
!	!	!	!LO:DY:b	!	!	!	!	!	!	!	!	!	!	!	!	!	!	!
1BBB-X 1BB-X	.	2Fn</ 2B 2d	p	1ryy	.	.	1ryy	.	.	1ryy	.	.	1ryy	.	.	4D\	Woj-	<
.	.	.	.	.	.	.	.	.	.	.	.	.	.	.	.	8D\	-ciech	.
.	.	.	.	.	.	.	.	.	.	.	.	.	.	.	.	8D\	jam	[
!	!	!	!	!	!	!	!	!	!	!	!	!	!	!	!	!	!	!LO:DY:a
.	.	2F</ 2A 2c	.	.	.	.	.	.	.	.	.	.	.	.	.	2Fn\	jest	>]
=11	=11	=11	=11	=11	=11	=11	=11	=11	=11	=11	=11	=11	=11	=11	=11	=11	=11	=11
[1BBB-X 1BB-X	.	[1Fn< (<1A (1c	.	1ryy	.	.	1ryy	.	.	1ryy	.	.	1ryy	.	.	4Fn\	Woj-	.
.	.	.	.	.	.	.	.	.	.	.	.	.	.	.	.	4F\	-ciech	.
.	.	.	.	.	.	.	.	.	.	.	.	.	.	.	.	4.A^\	słu-	.
.	.	.	.	.	.	.	.	.	.	.	.	.	.	.	.	8G\	-ga	.
!!LO:LB:g=original	!	!	!	!	!	!	!	!	!	!	!	!	!	!	!	!	!	!
=12	=12	=12	=12	=12	=12	=12	=12	=12	=12	=12	=12	=12	=12	=12	=12	=12	=12	=12
2BBB-\] 2BB-X	.	2Fn</] 2B-X) 2d)	.	1ryy	.	.	1ryy	.	.	1ryy	.	.	1ryy	.	.	(4G\	sług.	.
.	.	.	.	.	.	.	.	.	.	.	.	.	.	.	.	4Fn\)	.	.
!	!	!	!	!	!	!	!	!	!	!	!	!	!	!	!	!LO:TX:a:i:t=BORUS.	!	!
2r	.	2r	.	.	.	.	.	.	.	.	.	.	.	.	.	4r	.	.
*	*	*	*	*	*	*	*	*	*	*	*	*	*	*	*	*clefG2	*	*
.	.	.	.	.	.	.	.	.	.	.	.	.	.	.	.	8dd\	Kto	.
.	.	.	.	.	.	.	.	.	.	.	.	.	.	.	.	8dd\	jest	.
=13	=13	=13	=13	=13	=13	=13	=13	=13	=13	=13	=13	=13	=13	=13	=13	=13	=13	=13
2r	.	2r	.	1ryy	.	.	1ryy	.	.	1ryy	.	.	1ryy	.	.	4dd\	pa-	.
.	.	.	.	.	.	.	.	.	.	.	.	.	.	.	.	8dd\	-nem	.
.	.	.	.	.	.	.	.	.	.	.	.	.	.	.	.	8ee-X\	two-	.
4r	.	4r	.	.	.	.	.	.	.	.	.	.	.	.	.	4cc\	-im	.
!	!	!	!LO:DY:b	!	!	!	!	!	!	!	!	!	!	!	!	!	!	!
4CC/ 4C	.	32r	f	.	.	.	.	.	.	.	.	.	.	.	.	4r	.	.
.	.	32c/LLL	.	.	.	.	.	.	.	.	.	.	.	.	.	.	.	.
.	.	32d/	.	.	.	.	.	.	.	.	.	.	.	.	.	.	.	.
.	.	32e-X/JJJ	.	.	.	.	.	.	.	.	.	.	.	.	.	.	.	.
.	.	32fn/LLL	.	.	.	.	.	.	.	.	.	.	.	.	.	.	.	.
.	.	32g/	.	.	.	.	.	.	.	.	.	.	.	.	.	.	.	.
.	.	32a/	.	.	.	.	.	.	.	.	.	.	.	.	.	.	.	.
.	.	32b/JJJ	.	.	.	.	.	.	.	.	.	.	.	.	.	.	.	.
=14	=14	=14	=14	=14	=14	=14	=14	=14	=14	=14	=14	=14	=14	=14	=14	=14	=14	=14
16C\LL	.	32cc/LLL	.	1ryy	.	.	1ryy	.	.	1ryy	.	.	1ryy	.	.	2r	.	.
.	.	32c/	.	.	.	.	.	.	.	.	.	.	.	.	.	.	.	.
32D\L	.	32d/	.	.	.	.	.	.	.	.	.	.	.	.	.	.	.	.
32E-X\JJJ	.	32e-X/JJJ	.	.	.	.	.	.	.	.	.	.	.	.	.	.	.	.
32Fn\LLL	.	32fn/LLL	.	.	.	.	.	.	.	.	.	.	.	.	.	.	.	.
32G\	.	32g/	.	.	.	.	.	.	.	.	.	.	.	.	.	.	.	.
32A\	.	32a/	.	.	.	.	.	.	.	.	.	.	.	.	.	.	.	.
32B\JJJ	.	32b/JJJ	.	.	.	.	.	.	.	.	.	.	.	.	.	.	.	.
8.c\L	.	8.cc/L	.	.	.	.	.	.	.	.	.	.	.	.	.	.	.	.
16C\Jk	.	16c/Jk	.	.	.	.	.	.	.	.	.	.	.	.	.	.	.	.
!	!	!	!	!	!	!	!	!	!	!	!	!	!	!	!	!LO:TX:a:i:t=Ś. WOJCIECH.	!	!
!	!	!	!LO:DY:b	!	!	!	!	!	!	!	!	!	!	!	!	!	!	!
4C\	.	4c^>/	f	.	.	.	.	.	.	.	.	.	.	.	.	4r	.	.
*	*	*	*	*	*	*	*	*	*	*	*	*	*	*	*	*clefF4	*	*
4r	.	4r	.	.	.	.	.	.	.	.	.	.	.	.	.	8r	.	.
.	.	.	.	.	.	.	.	.	.	.	.	.	.	.	.	8E\	Mym	.
!!LO:LB:g=original	!	!	!	!	!	!	!	!	!	!	!	!	!	!	!	!	!	!
!!LO:PB:g=original	!	!	!	!	!	!	!	!	!	!	!	!	!	!	!	!	!	!
=15	=15	=15	=15	=15	=15	=15	=15	=15	=15	=15	=15	=15	=15	=15	=15	=15	=15	=15
2BBB-X\ 2BB-X	.	2E<^>/ 2c	.	1ryy	.	.	1ryy	.	.	1ryy	.	.	1ryy	.	.	4.c\	pa-	.
.	.	.	.	.	.	.	.	.	.	.	.	.	.	.	.	8c\	-nem	.
!	!	!	!	!	!	!	!	!	!	!	!	!	!	!	!	!LO:TX:a:i:t=a tempo	!	!
2AAA-X\ 2AA-X	.	2Fn<^>/ 2c	.	.	.	.	.	.	.	.	.	.	.	.	.	4.c\	Bóg	.
.	.	.	.	.	.	.	.	.	.	.	.	.	.	.	.	8c\	stwo-	.
=16	=16	=16	=16	=16	=16	=16	=16	=16	=16	=16	=16	=16	=16	=16	=16	=16	=16	=16
2BBB\ 2GG	.	2.E<^>/ 2.B-X 2.c	.	1ryy	.	.	1ryy	.	.	1ryy	.	.	1ryy	.	.	4c\	-rze-	.
.	.	.	.	.	.	.	.	.	.	.	.	.	.	.	.	4C/	-nia,	.
2GGG\ 2GG	.	.	.	.	.	.	.	.	.	.	.	.	.	.	.	4r	.	.
.	.	4E<^>/ 4B- 4c	.	.	.	.	.	.	.	.	.	.	.	.	.	8c\	je-	.
.	.	.	.	.	.	.	.	.	.	.	.	.	.	.	.	8c\	-den	.
=17	=17	=17	=17	=17	=17	=17	=17	=17	=17	=17	=17	=17	=17	=17	=17	=17	=17	=17
!	!	!LO:TX:b:i:t=lento.	!	!	!	!	!	!	!	!	!	!	!	!	!	!LO:TX:a:i:t=lento.	!	!
4FFFn\ 4FFn	.	4Fn</ 4A-X< 4d-X	.	1ryy	.	.	1ryy	.	.	1ryy	.	.	1ryy	.	.	4.d-X\	Bóg,	.
4GGG\ 4GG	.	8r	.	.	.	.	.	.	.	.	.	.	.	.	.	.	.	.
.	.	8F</ 8G< 8Bn	.	.	.	.	.	.	.	.	.	.	.	.	.	16c\	pra-	.
.	.	.	.	.	.	.	.	.	.	.	.	.	.	.	.	16Bn\	-wy	.
2CC\ 2C	.	2E</ 2G< 2c	.	.	.	.	.	.	.	.	.	.	.	.	.	2c\	Bóg!	.
*	*	*	*	*	*	*	*	*	*	*	*	*	*	*	*	*clefG2	*	*
=18||	=18||	=18||	=18||	=18||	=18||	=18||	=18||	=18||	=18||	=18||	=18||	=18||	=18||	=18||	=18||	=18||	=18||	=18||
*k[b-e-a-d-]	*	*k[b-e-a-d-]	*	*k[b-e-a-d-]	*	*	*k[b-e-a-d-]	*	*	*k[b-e-a-d-]	*	*	*k[b-e-a-d-]	*	*	*k[b-e-a-d-]	*	*
*M3/4	*	*M3/4	*	*M3/4	*	*	*M3/4	*	*	*M3/4	*	*	*M3/4	*	*	*M3/4	*	*
!	!	!	!	!	!	!	!	!	!	!	!	!	!	!	!	!LO:TX:t=P:problem=brak oznaczenia metrum	!	!
!	!	!LO:TX:a:B:t=Allo agitato.	!	!	!	!	!	!	!	!	!	!	!	!	!	!LO:TX:a:B:t=Allo agitato.	!	!
!	!	!	!LO:DY:b	!	!	!	!	!	!	!	!	!	!	!	!	!	!	!
4.FF\	.	8.F</L 8.A-< 8.c	f	2.ryy	.	.	2.ryy	.	.	2.ryy	.	.	2.ryy	.	.	2.r	.	.
.	.	16F</Jk 16A-< 16c	.	.	.	.	.	.	.	.	.	.	.	.	.	.	.	.
.	.	2F</ 2A-< 2c	.	.	.	.	.	.	.	.	.	.	.	.	.	.	.	.
8CC\L	.	.	.	.	.	.	.	.	.	.	.	.	.	.	.	.	.	.
8DDn\	.	.	.	.	.	.	.	.	.	.	.	.	.	.	.	.	.	.
8EEn\J	.	.	.	.	.	.	.	.	.	.	.	.	.	.	.	.	.	.
=19	=19	=19	=19	=19	=19	=19	=19	=19	=19	=19	=19	=19	=19	=19	=19	=19	=19	=19
!	!	!	!	!	!	!	!	!	!	!	!	!	!	!	!	!LO:TX:a:i:t=BORUS.	!	!
8FF\L	.	4r	.	2.ryy	.	.	2.ryy	.	.	2.ryy	.	.	2.ryy	.	.	4r	.	.
8EEn\	.	.	.	.	.	.	.	.	.	.	.	.	.	.	.	.	.	.
.	.	(32qqA-</LLL	.	.	.	.	.	.	.	.	.	.	.	.	.	.	.	.
.	.	32qqc</JJJ	.	.	.	.	.	.	.	.	.	.	.	.	.	.	.	.
8FF\	.	8f'\)	.	.	.	.	.	.	.	.	.	.	.	.	.	4r	.	.
8GG\	.	8r	.	.	.	.	.	.	.	.	.	.	.	.	.	.	.	.
.	.	(32qqa-/LLL	.	.	.	.	.	.	.	.	.	.	.	.	.	.	.	.
.	.	32qqcc/JJJ	.	.	.	.	.	.	.	.	.	.	.	.	.	.	.	.
!	!	!	!	!	!	!	!	!	!	!	!	!	!	!	!	!	!	!
8AA-\	.	8ff'\)	.	.	.	.	.	.	.	.	.	.	.	.	.	4a-/	Bluź-	.
8GG\J	.	8r	.	.	.	.	.	.	.	.	.	.	.	.	.	.	.	.
!!LO:LB:g=original	!	!	!	!	!	!	!	!	!	!	!	!	!	!	!	!	!	!
=20	=20	=20	=20	=20	=20	=20	=20	=20	=20	=20	=20	=20	=20	=20	=20	=20	=20	=20
4.FF/	.	8.F</L 8.A-< 8.c	.	2.ryy	.	.	2.ryy	.	.	2.ryy	.	.	2.ryy	.	.	2.ff^\	-nier-	.
.	.	16F</Jk 16A-< 16c	.	.	.	.	.	.	.	.	.	.	.	.	.	.	.	.
.	.	2F</ 2A-< 2c	.	.	.	.	.	.	.	.	.	.	.	.	.	.	.	.
8CC\L	.	.	.	.	.	.	.	.	.	.	.	.	.	.	.	.	.	.
8DDn\	.	.	.	.	.	.	.	.	.	.	.	.	.	.	.	.	.	.
8EEn\J	.	.	.	.	.	.	.	.	.	.	.	.	.	.	.	.	.	.
=21	=21	=21	=21	=21	=21	=21	=21	=21	=21	=21	=21	=21	=21	=21	=21	=21	=21	=21
8FF\L	.	4r	.	2.ryy	.	.	2.ryy	.	.	2.ryy	.	.	2.ryy	.	.	2.cc\	-co	.
8EEn\	.	.	.	.	.	.	.	.	.	.	.	.	.	.	.	.	.	.
.	.	(32qqA-</LLL	.	.	.	.	.	.	.	.	.	.	.	.	.	.	.	.
.	.	32qqc</JJJ	.	.	.	.	.	.	.	.	.	.	.	.	.	.	.	.
8FF\	.	8f\)	.	.	.	.	.	.	.	.	.	.	.	.	.	.	.	.
8GG\	.	8r	.	.	.	.	.	.	.	.	.	.	.	.	.	.	.	.
.	.	(32qqa-/LLL	.	.	.	.	.	.	.	.	.	.	.	.	.	.	.	.
.	.	32qqcc/JJJ	.	.	.	.	.	.	.	.	.	.	.	.	.	.	.	.
8AA-\	.	8ff\)	.	.	.	.	.	.	.	.	.	.	.	.	.	.	.	.
8GG\J	.	8r	.	.	.	.	.	.	.	.	.	.	.	.	.	.	.	.
=22	=22	=22	=22	=22	=22	=22	=22	=22	=22	=22	=22	=22	=22	=22	=22	=22	=22	=22
4.BB-\	.	8.F<^>/L 8.B- 8.d-	.	2.ryy	.	.	2.ryy	.	.	2.ryy	.	.	2.ryy	.	.	2dd-\	nędz-	.
.	.	16F</Jk 16B- 16d-	.	.	.	.	.	.	.	.	.	.	.	.	.	.	.	.
.	.	2F</ 2B- 2d-	sf	.	.	.	.	.	.	.	.	.	.	.	.	.	.	.
8FF\L	.	.	.	.	.	.	.	.	.	.	.	.	.	.	.	.	.	.
8GG\	.	.	.	.	.	.	.	.	.	.	.	.	.	.	.	4dd-\	-ny	.
8AAn\J	.	.	.	.	.	.	.	.	.	.	.	.	.	.	.	.	.	.
=23	=23	=23	=23	=23	=23	=23	=23	=23	=23	=23	=23	=23	=23	=23	=23	=23	=23	=23
8BB-\L	.	4r	.	2.ryy	.	.	2.ryy	.	.	2.ryy	.	.	2.ryy	.	.	2dd-\	drżyj,	.
8AAn\	.	.	.	.	.	.	.	.	.	.	.	.	.	.	.	.	.	.
.	.	(32qqB-/LLL	.	.	.	.	.	.	.	.	.	.	.	.	.	.	.	.
.	.	32qqe-X/JJJ	.	.	.	.	.	.	.	.	.	.	.	.	.	.	.	.
8BB-\	.	8f'\)	.	.	.	.	.	.	.	.	.	.	.	.	.	.	.	.
8C\	.	8r	.	.	.	.	.	.	.	.	.	.	.	.	.	.	.	.
.	.	(32qqb-/LLL	.	.	.	.	.	.	.	.	.	.	.	.	.	.	.	.
.	.	32qqdd-/JJJ	.	.	.	.	.	.	.	.	.	.	.	.	.	.	.	.
8D-\	.	8ff'\)	.	.	.	.	.	.	.	.	.	.	.	.	.	4dd-\	bluź-	.
8BB-\J	.	8r	.	.	.	.	.	.	.	.	.	.	.	.	.	.	.	.
=24	=24	=24	=24	=24	=24	=24	=24	=24	=24	=24	=24	=24	=24	=24	=24	=24	=24	=24
4.FF\	.	8.F</L 8.A-< 8.c 8.f	.	2.ryy	.	.	2.ryy	.	.	2.ryy	.	.	2.ryy	.	.	4ff\	-nier-	.
.	.	16F</Jk 16A-< 16c 16f	.	.	.	.	.	.	.	.	.	.	.	.	.	.	.	.
.	.	2F</ 2A-< 2c 2f	.	.	.	.	.	.	.	.	.	.	.	.	.	4f/	-co	.
8CC\L	.	.	.	.	.	.	.	.	.	.	.	.	.	.	.	.	.	.
8DDn\	.	.	.	.	.	.	.	.	.	.	.	.	.	.	.	4r	.	.
8EEn\J	.	.	.	.	.	.	.	.	.	.	.	.	.	.	.	.	.	.
!!LO:LB:g=original	!	!	!	!	!	!	!	!	!	!	!	!	!	!	!	!	!	!
=25	=25	=25	=25	=25	=25	=25	=25	=25	=25	=25	=25	=25	=25	=25	=25	=25	=25	=25
8FF\L	.	4r	.	2.ryy	.	.	2.ryy	.	.	2.ryy	.	.	2.ryy	.	.	4r	.	.
8EEn\	.	.	.	.	.	.	.	.	.	.	.	.	.	.	.	.	.	.
.	.	(32qqA-</LLL	.	.	.	.	.	.	.	.	.	.	.	.	.	.	.	.
.	.	32qqc</JJJ	.	.	.	.	.	.	.	.	.	.	.	.	.	.	.	.
8FF\	.	8f'\)	.	.	.	.	.	.	.	.	.	.	.	.	.	8r	.	.
8GG\	.	8r	.	.	.	.	.	.	.	.	.	.	.	.	.	8cc\	przed	.
.	.	(32qqa-/LLL	.	.	.	.	.	.	.	.	.	.	.	.	.	.	.	.
.	.	32qqcc/JJJ	.	.	.	.	.	.	.	.	.	.	.	.	.	.	.	.
8AA-\	.	8ff'\)	.	.	.	.	.	.	.	.	.	.	.	.	.	8cc\	gnie-	.
8BB-\J	.	8r	.	.	.	.	.	.	.	.	.	.	.	.	.	8cc\	-wem	.
=26	=26	=26	=26	=26	=26	=26	=26	=26	=26	=26	=26	=26	=26	=26	=26	=26	=26	=26
4.C\	.	8.G</L 8.c 8.en	.	2.ryy	.	.	2.ryy	.	.	2.ryy	.	.	2.ryy	.	.	2cc\	mo-	.
.	.	16G</Jk 16c 16e	.	.	.	.	.	.	.	.	.	.	.	.	.	.	.	.
.	.	2G</ 2c 2e	.	.	.	.	.	.	.	.	.	.	.	.	.	.	.	.
8CC\L	.	.	.	.	.	.	.	.	.	.	.	.	.	.	.	.	.	.
8DDn\	.	.	.	.	.	.	.	.	.	.	.	.	.	.	.	8b-\	-im	.
8EEn\J	.	.	.	.	.	.	.	.	.	.	.	.	.	.	.	8b-\	się	.
=27	=27	=27	=27	=27	=27	=27	=27	=27	=27	=27	=27	=27	=27	=27	=27	=27	=27	=27
8FF\L	.	4r	.	2.ryy	.	.	2.ryy	.	.	2.ryy	.	.	2.ryy	.	.	(4a-/	skryj;	.
8EEn\	.	.	.	.	.	.	.	.	.	.	.	.	.	.	.	.	.	.
.	.	(32qqA-/LLL	.	.	.	.	.	.	.	.	.	.	.	.	.	.	.	.
.	.	32qqc/JJJ	.	.	.	.	.	.	.	.	.	.	.	.	.	.	.	.
8FF\	.	8f'\)	.	.	.	.	.	.	.	.	.	.	.	.	.	4f/)	.	.
8GG\	.	8r	.	.	.	.	.	.	.	.	.	.	.	.	.	.	.	.
.	.	(32qqa-/LLL	.	.	.	.	.	.	.	.	.	.	.	.	.	.	.	.
.	.	32qqcc/JJJ	.	.	.	.	.	.	.	.	.	.	.	.	.	.	.	.
8AA-\	.	8ff'\)	.	.	.	.	.	.	.	.	.	.	.	.	.	8r	.	.
8BB-\J	.	8r	.	.	.	.	.	.	.	.	.	.	.	.	.	8cc\	precz	.
=28	=28	=28	=28	=28	=28	=28	=28	=28	=28	=28	=28	=28	=28	=28	=28	=28	=28	=28
4.C\	.	8.G</L 8.c 8.en	.	2.ryy	.	.	2.ryy	.	.	2.ryy	.	.	2.ryy	.	.	[2cc\	z tąd!	.
.	.	16G</Jk 16c 16e	.	.	.	.	.	.	.	.	.	.	.	.	.	.	.	.
.	.	2G</ 2c 2e	.	.	.	.	.	.	.	.	.	.	.	.	.	.	.	.
8CC\L	.	.	.	.	.	.	.	.	.	.	.	.	.	.	.	.	.	.
8DDn\	.	.	.	.	.	.	.	.	.	.	.	.	.	.	.	8cc\]	.	.
8EEn\J	.	.	.	.	.	.	.	.	.	.	.	.	.	.	.	8cc\	tu	.
=29	=29	=29	=29	=29	=29	=29	=29	=29	=29	=29	=29	=29	=29	=29	=29	=29	=29	=29
8FF\L	.	2cc\	.	2.ryy	.	.	2.ryy	.	.	2.ryy	.	.	2.ryy	.	.	2cc\	świę-	.
8EEn\	.	.	.	.	.	.	.	.	.	.	.	.	.	.	.	.	.	.
8FF\	.	.	.	.	.	.	.	.	.	.	.	.	.	.	.	.	.	.
8GG\	.	.	.	.	.	.	.	.	.	.	.	.	.	.	.	.	.	.
.	.	(32qqA-</LLL	.	.	.	.	.	.	.	.	.	.	.	.	.	.	.	.
.	.	32qqc</JJJ	.	.	.	.	.	.	.	.	.	.	.	.	.	.	.	.
8AA-\	.	8f'\)	.	.	.	.	.	.	.	.	.	.	.	.	.	4cc\	-te	.
.	.	(32qqa-/LLL	.	.	.	.	.	.	.	.	.	.	.	.	.	.	.	.
.	.	32qqcc/JJJ	.	.	.	.	.	.	.	.	.	.	.	.	.	.	.	.
8FF\J	.	8ff'\)	.	.	.	.	.	.	.	.	.	.	.	.	.	.	.	.
!!LO:LB:g=original	!	!	!	!	!	!	!	!	!	!	!	!	!	!	!	!	!	!
=30	=30	=30	=30	=30	=30	=30	=30	=30	=30	=30	=30	=30	=30	=30	=30	=30	=30	=30
4.BB-\	.	8.G</L 8.d- 8.f	.	2.ryy	.	.	2.ryy	.	.	2.ryy	.	.	2.ryy	.	.	4g/	ga-	.
.	.	16G</Jk 16d- 16f	.	.	.	.	.	.	.	.	.	.	.	.	.	.	.	.
.	.	2G</ 2d- 2f	.	.	.	.	.	.	.	.	.	.	.	.	.	4g/	-je!	.
8BB-\L	.	.	.	.	.	.	.	.	.	.	.	.	.	.	.	.	.	.
8AAn\	.	.	.	.	.	.	.	.	.	.	.	.	.	.	.	4dd-\	Idź	.
8BB-\J	.	.	.	.	.	.	.	.	.	.	.	.	.	.	.	.	.	.
=31	=31	=31	=31	=31	=31	=31	=31	=31	=31	=31	=31	=31	=31	=31	=31	=31	=31	=31
4.C\	.	8.G</L 8.c 8.en	.	2.ryy	.	.	2.ryy	.	.	2.ryy	.	.	2.ryy	.	.	4cc\	two-	.
.	.	16G</Jk 16c 16e	.	.	.	.	.	.	.	.	.	.	.	.	.	.	.	.
.	.	2G</ 2c 2e	.	.	.	.	.	.	.	.	.	.	.	.	.	4cc\	-je	.
8C\L	.	.	.	.	.	.	.	.	.	.	.	.	.	.	.	.	.	.
8BBn\	.	.	.	.	.	.	.	.	.	.	.	.	.	.	.	8cc\	gus-	.
8C\J	.	.	.	.	.	.	.	.	.	.	.	.	.	.	.	8cc\	-ła	.
=32	=32	=32	=32	=32	=32	=32	=32	=32	=32	=32	=32	=32	=32	=32	=32	=32	=32	=32
4.AAn\	.	8.G-X</L 8.c 8.e-X 8.g-X	.	2.ryy	.	.	2.ryy	.	.	2.ryy	.	.	2.ryy	.	.	2.ee-\	nieść	.
.	.	16G-</Jk 16c 16e- 16g-	.	.	.	.	.	.	.	.	.	.	.	.	.	.	.	.
.	.	2G-</ [2c [2e- [2g-	.	.	.	.	.	.	.	.	.	.	.	.	.	.	.	.
8E-\L	.	.	.	.	.	.	.	.	.	.	.	.	.	.	.	.	.	.
8G-X\	.	.	.	.	.	.	.	.	.	.	.	.	.	.	.	.	.	.
8F\J	.	.	.	.	.	.	.	.	.	.	.	.	.	.	.	.	.	.
=33	=33	=33	=33	=33	=33	=33	=33	=33	=33	=33	=33	=33	=33	=33	=33	=33	=33	=33
8E-\L	.	2c/] 2e-] 2g-X]	.	2.ryy	.	.	2.ryy	.	.	2.ryy	.	.	2.ryy	.	.	4ee-\	Tam	.
8D-\	.	.	.	.	.	.	.	.	.	.	.	.	.	.	.	.	.	.
8C\	.	.	.	.	.	.	.	.	.	.	.	.	.	.	.	4r	.	.
8BB-\	.	.	.	.	.	.	.	.	.	.	.	.	.	.	.	.	.	.
8AAn\	.	4An/ 4e- 4g-X	.	.	.	.	.	.	.	.	.	.	.	.	.	8ee-\	gdzie	.
8C\J	.	.	.	.	.	.	.	.	.	.	.	.	.	.	.	8ee-\	le-	.
=34	=34	=34	=34	=34	=34	=34	=34	=34	=34	=34	=34	=34	=34	=34	=34	=34	=34	=34
4.BB-\	.	8.B-/L 8.d- 8.f	.	2.ryy	.	.	2.ryy	.	.	2.ryy	.	.	2.ryy	.	.	2dd-\	-chic-	.
.	.	16B-/Jk 16d- 16f	.	.	.	.	.	.	.	.	.	.	.	.	.	.	.	.
.	.	2B-/ 2d- 2f	.	.	.	.	.	.	.	.	.	.	.	.	.	.	.	.
8D-\L	.	.	.	.	.	.	.	.	.	.	.	.	.	.	.	.	.	.
8F\	.	.	.	.	.	.	.	.	.	.	.	.	.	.	.	4b-\	-kie	.
8E-\J	.	.	.	.	.	.	.	.	.	.	.	.	.	.	.	.	.	.
!!LO:LB:g=original	!	!	!	!	!	!	!	!	!	!	!	!	!	!	!	!	!	!
=35	=35	=35	=35	=35	=35	=35	=35	=35	=35	=35	=35	=35	=35	=35	=35	=35	=35	=35
8D-\L	.	4r	.	2.ryy	.	.	2.ryy	.	.	2.ryy	.	.	2.ryy	.	.	(2b-\	kra-	.
8C\	.	.	.	.	.	.	.	.	.	.	.	.	.	.	.	.	.	.
8BB-\	.	4B-/ 4d- 4f	.	.	.	.	.	.	.	.	.	.	.	.	.	.	.	.
8C\	.	.	.	.	.	.	.	.	.	.	.	.	.	.	.	.	.	.
8D-\	.	4B-/ 4d- 4f	.	.	.	.	.	.	.	.	.	.	.	.	.	8ff\L	.	.
8BB-\J	.	.	.	.	.	.	.	.	.	.	.	.	.	.	.	8dd-\J)	.	.
=36	=36	=36	=36	=36	=36	=36	=36	=36	=36	=36	=36	=36	=36	=36	=36	=36	=36	=36
!	!	!	!	!	!	!	!	!	!	!	!	!	!	!	!	!	!	!
!	!	!	!	!	!	!	!	!	!	!	!	!	!	!	!	!	!	!
4.C^/	.	8.A-^/L 8.c 8.f	.	2.ryy	.	.	2.ryy	.	.	2.ryy	.	.	2.ryy	.	.	[2.cc\	-je	.
.	.	16A-/Jk 16c 16f	.	.	.	.	.	.	.	.	.	.	.	.	.	.	.	.
.	.	2A-/ 2c 2f	.	.	.	.	.	.	.	.	.	.	.	.	.	.	.	.
!	!LO:HP:a:t=cres -	!	!	!	!	!	!	!	!	!	!	!	!	!	!	!	!	!
8C/L	<	.	.	.	.	.	.	.	.	.	.	.	.	.	.	.	.	.
8BBn/	.	.	.	.	.	.	.	.	.	.	.	.	.	.	.	.	.	.
8C/J	.	.	.	.	.	.	.	.	.	.	.	.	.	.	.	.	.	.
=37	=37	=37	=37	=37	=37	=37	=37	=37	=37	=37	=37	=37	=37	=37	=37	=37	=37	=37
4.C/	.	8.G/L 8.c 8.f	.	2.ryy	.	.	2.ryy	.	.	2.ryy	.	.	2.ryy	.	.	4cc\]	.	.
.	.	16G/Jk 16c 16f	.	.	.	.	.	.	.	.	.	.	.	.	.	.	.	.
.	.	2G/ 2c 2en	.	.	.	.	.	.	.	.	.	.	.	.	.	4r	.	.
8C/L	.	.	.	.	.	.	.	.	.	.	.	.	.	.	.	.	.	.
8BBn/	.	.	.	.	.	.	.	.	.	.	.	.	.	.	.	8r	.	.
8C/J	.	.	.	.	.	.	.	.	.	.	.	.	.	.	.	8cc\	lub	.
=38	=38	=38	=38	=38	=38	=38	=38	=38	=38	=38	=38	=38	=38	=38	=38	=38	=38	=38
4.C/	.	8.A-/L 8.c 8.f	.	2.ryy	.	.	2.ryy	.	.	2.ryy	.	.	2.ryy	.	.	4cc\	od-	.
.	.	16A-/Jk 16c 16f	.	.	.	.	.	.	.	.	.	.	.	.	.	.	.	.
.	.	2A-/ 2c 2f	.	.	.	.	.	.	.	.	.	.	.	.	.	4cc\	-daj	.
!	!LO:HP:a:t=cen -	!	!	!	!	!	!	!	!	!	!	!	!	!	!	!	!	!
8C\L	<	.	.	.	.	.	.	.	.	.	.	.	.	.	.	.	.	.
8BBn\	.	.	.	.	.	.	.	.	.	.	.	.	.	.	.	8cc\	bo-	.
8C\J	.	.	.	.	.	.	.	.	.	.	.	.	.	.	.	8cc\	-gom	.
!!LO:LB:g=original	!	!	!	!	!	!	!	!	!	!	!	!	!	!	!	!	!	!
!!LO:PB:g=original	!	!	!	!	!	!	!	!	!	!	!	!	!	!	!	!	!	!
=39||	=39||	=39||	=39||	=39||	=39||	=39||	=39||	=39||	=39||	=39||	=39||	=39||	=39||	=39||	=39||	=39||	=39||	=39||
*k[b-]	*	*k[b-]	*	*k[b-]	*	*	*k[b-]	*	*	*k[b-]	*	*	*k[b-]	*	*	*k[b-]	*	*
4C\	.	8G/ 8c 8en	.	4r	.	.	4r	.	.	4r	.	.	2cc\	cześć!	.	2.ryy	.	.
!	!LO:HP:a:t=do.	!	!	!	!	!	!	!	!	!	!	!	!	!	!	!	!	!
.	<	(16cc\LL	.	.	.	.	.	.	.	.	.	.	.	.	.	.	.	.
.	.	16bn\JJ	.	.	.	.	.	.	.	.	.	.	.	.	.	.	.	.
4r	.	16cc\LL	.	4r	.	.	4r	.	.	4r	.	.	.	.	.	.	.	.
.	.	16b\	.	.	.	.	.	.	.	.	.	.	.	.	.	.	.	.
.	.	16cc\	.	.	.	.	.	.	.	.	.	.	.	.	.	.	.	.
.	.	16b\JJ	.	.	.	.	.	.	.	.	.	.	.	.	.	.	.	.
4C\ 4G 4B- 4c	.	16cc\LL	.	8r	.	.	8r	.	.	8r	.	.	8r	.	.	.	.	.
.	.	16cc#X\	.	.	.	.	.	.	.	.	.	.	.	.	.	.	.	.
!	!	!	!	!	!	!LO:DY:a	!	!	!	!LO:TX:a:t=CHÓR	!	!LO:DY:a	!	!	!LO:DY:a	!	!	!
.	.	16dd\	.	8c\	Bluź-	f	8c\	Bluź-	.	8cc\	Bluź-	f	8cc\	Bluź-	f	.	.	.
.	.	16ee\JJ)	.	.	.	.	.	.	.	.	.	.	.	.	.	.	.	.
=40	=40	=40	=40	=40	=40	=40	=40	=40	=40	=40	=40	=40	=40	=40	=40	=40	=40	=40
!	!	!	!LO:DY:b	!	!	!	!	!	!	!	!	!	!	!	!	!	!	!
!	!	!	!LO:HP:b	!	!	!	!	!	!	!	!	!	!	!	!	!	!	!
16FF\LL	.	16ff\LL	f <	2F\	-nier-	.	2A\	-nier-	.	2cc\	-nier-	.	2ff\	-nier-	.	2.ryy	.	.
16AA\	.	16cc\	.	.	.	.	.	.	.	.	.	.	.	.	.	.	.	.
16C\	.	16a\	.	.	.	.	.	.	.	.	.	.	.	.	.	.	.	.
16F\JJ	.	16f\JJ	.	.	.	.	.	.	.	.	.	.	.	.	.	.	.	.
16FF\LL	.	16ff\LL	.	.	.	.	.	.	.	.	.	.	.	.	.	.	.	.
16AA\	.	16cc\	.	.	.	.	.	.	.	.	.	.	.	.	.	.	.	.
16C\	.	16a\	.	.	.	.	.	.	.	.	.	.	.	.	.	.	.	.
16F\JJ	.	16f\JJ	.	.	.	.	.	.	.	.	.	.	.	.	.	.	.	.
16FF\LL	.	16ff\LL	.	4F\	-co	.	4C/	-co	.	4f/	-co	.	4f/	-co	.	.	.	.
16AA\	.	16cc\	.	.	.	.	.	.	.	.	.	.	.	.	.	.	.	.
16C\	.	16a\	.	.	.	.	.	.	.	.	.	.	.	.	.	.	.	.
16F\JJ	.	16f\JJ	.	.	.	.	.	.	.	.	.	.	.	.	.	.	.	.
=41	=41	=41	=41	=41	=41	=41	=41	=41	=41	=41	=41	=41	=41	=41	=41	=41	=41	=41
16FF\LL	.	16ff\LL	.	4F\	tu	.	4A\	tu	.	4cc\	tu	.	4ff\	tu	.	2.ryy	.	.
16AA\	.	16cc\	.	.	.	.	.	.	.	.	.	.	.	.	.	.	.	.
16C\	.	16a\	.	.	.	.	.	.	.	.	.	.	.	.	.	.	.	.
16F\JJ	.	16f\JJ	.	.	.	.	.	.	.	.	.	.	.	.	.	.	.	.
16FF\LL	.	16ff\LL	.	4F\	świę-	.	4A\	świę-	.	4cc\	świę-	.	4ff\	świę-	.	.	.	.
16AA\	.	16cc\	.	.	.	.	.	.	.	.	.	.	.	.	.	.	.	.
16C\	.	16a\	.	.	.	.	.	.	.	.	.	.	.	.	.	.	.	.
16F\JJ	.	16f\JJ	.	.	.	.	.	.	.	.	.	.	.	.	.	.	.	.
16FF\LL	.	16ff\LL	.	4F\	-te	.	4A\	-te	.	4cc\	-te	.	4ff\	-te	.	.	.	.
16AA\	.	16cc\	.	.	.	.	.	.	.	.	.	.	.	.	.	.	.	.
16C\	.	16a\	.	.	.	.	.	.	.	.	.	.	.	.	.	.	.	.
16F\JJ	.	16f\JJ	[[	.	.	.	.	.	.	.	.	.	.	.	.	.	.	.
=42	=42	=42	=42	=42	=42	=42	=42	=42	=42	=42	=42	=42	=42	=42	=42	=42	=42	=42
!	!	!	!	!	!	!LO:DY:a	!	!	!LO:DY:a	!	!	!LO:DY:a	!	!	!LO:DY:a	!	!	!
!	!	!	!LO:DY:b	!	!	!	!	!	!	!	!	!	!	!	!	!	!	!
20FF\LL	.	20ff\LL	sf	2.F\	ga	f	2.G#X\	ga-	f	2.bn\ 2.dd	ga-	f	2.ff\	ga-	f	2.ryy	.	.
20GG#X\	.	20dd\	.	.	.	.	.	.	.	.	.	.	.	.	.	.	.	.
20BBn\	.	20bn\	.	.	.	.	.	.	.	.	.	.	.	.	.	.	.	.
20D\	.	20g#X\	.	.	.	.	.	.	.	.	.	.	.	.	.	.	.	.
20F\JJ	.	20f\JJ	.	.	.	.	.	.	.	.	.	.	.	.	.	.	.	.
20FF\LL	.	20ff\LL	.	.	.	.	.	.	.	.	.	.	.	.	.	.	.	.
20GG#\	.	20dd\	.	.	.	.	.	.	.	.	.	.	.	.	.	.	.	.
20BB\	.	20b\	.	.	.	.	.	.	.	.	.	.	.	.	.	.	.	.
20D\	.	20g#\	.	.	.	.	.	.	.	.	.	.	.	.	.	.	.	.
20F\JJ	.	20f\JJ	.	.	.	.	.	.	.	.	.	.	.	.	.	.	.	.
20FF\LL	.	20ff\LL	.	.	.	.	.	.	.	.	.	.	.	.	.	.	.	.
20GG#\	.	20dd\	.	.	.	.	.	.	.	.	.	.	.	.	.	.	.	.
20BB\	.	20b\	.	.	.	.	.	.	.	.	.	.	.	.	.	.	.	.
20D\	.	20g#\	.	.	.	.	.	.	.	.	.	.	.	.	.	.	.	.
20F\JJ	.	20f\JJ	.	.	.	.	.	.	.	.	.	.	.	.	.	.	.	.
!!LO:LB:g=original	!	!	!	!	!	!	!	!	!	!	!	!	!	!	!	!	!	!
=43	=43	=43	=43	=43	=43	=43	=43	=43	=43	=43	=43	=43	=43	=43	=43	=43	=43	=43
16FF\LL	.	16ff\LL	.	4D\	-je!	.	4A\	-je!	.	4cc\	-je!	.	4ff\	-je!	.	2.ryy	.	.
16AA\	.	16cc\	.	.	.	.	.	.	.	.	.	.	.	.	.	.	.	.
16C\	.	16a\	.	.	.	.	.	.	.	.	.	.	.	.	.	.	.	.
16F\JJ	.	16f\JJ	.	.	.	.	.	.	.	.	.	.	.	.	.	.	.	.
16FF\LL	.	16ff\LL	.	4r	.	.	4r	.	.	4r	.	.	4r	.	.	.	.	.
16AA\	.	16cc\	.	.	.	.	.	.	.	.	.	.	.	.	.	.	.	.
16C\	.	16a\	.	.	.	.	.	.	.	.	.	.	.	.	.	.	.	.
16F\JJ	.	16f\JJ	.	.	.	.	.	.	.	.	.	.	.	.	.	.	.	.
16FF\LL	.	16ff\LL	.	8r	.	.	8r	.	.	8r	.	.	8r	.	.	.	.	.
16AA\	.	16cc\	.	.	.	.	.	.	.	.	.	.	.	.	.	.	.	.
16C\	.	16a\	.	8c\	Precz	.	8c\	Precz	.	8cc\	Precz	.	8cc\	Precz	.	.	.	.
16F\JJ	.	16f\JJ	.	.	.	.	.	.	.	.	.	.	.	.	.	.	.	.
=44	=44	=44	=44	=44	=44	=44	=44	=44	=44	=44	=44	=44	=44	=44	=44	=44	=44	=44
16FF\LL	.	16ff\LL	.	2F\	ztąd	.	2A\	ztąd	.	2cc\	ztąd	.	2ff\	z tąd	.	2.ryy	.	.
16AA\	.	16cc\	.	.	.	.	.	.	.	.	.	.	.	.	.	.	.	.
16C\	.	16a\	.	.	.	.	.	.	.	.	.	.	.	.	.	.	.	.
16F\JJ	.	16f\JJ	.	.	.	.	.	.	.	.	.	.	.	.	.	.	.	.
!	!	!	!LO:HP:b	!	!	!	!	!	!	!	!	!	!	!	!	!	!	!
16FF\LL	.	16ff\LL	<	.	.	.	.	.	.	.	.	.	.	.	.	.	.	.
16AA\	.	16cc\	.	.	.	.	.	.	.	.	.	.	.	.	.	.	.	.
16C\	.	16a\	.	.	.	.	.	.	.	.	.	.	.	.	.	.	.	.
16F\JJ	.	16f\JJ	.	.	.	.	.	.	.	.	.	.	.	.	.	.	.	.
16FF\LL	.	16ff\LL	.	8F\	to-	.	8A\	to-	.	8cc\	to-	.	8ff\	to-	.	.	.	.
16AA\	.	16cc\	.	.	.	.	.	.	.	.	.	.	.	.	.	.	.	.
16C\	.	16a\	.	8F\	-bie	.	8A\	-bie	.	8cc\	-bie	.	8ff\	-bie	.	.	.	.
16F\JJ	.	16f\JJ	.	.	.	.	.	.	.	.	.	.	.	.	.	.	.	.
=45	=45	=45	=45	=45	=45	=45	=45	=45	=45	=45	=45	=45	=45	=45	=45	=45	=45	=45
16FF\LL	.	16ff\LL	.	2F^\	śmierć!	.	2A^\	śmierć!	.	2cc^\	śmierć!	.	2ff^\	śmierć!	.	2.ryy	.	.
16AA\	.	16cc\	.	.	.	.	.	.	.	.	.	.	.	.	.	.	.	.
16C\	.	16a\	.	.	.	.	.	.	.	.	.	.	.	.	.	.	.	.
16F\JJ	.	16f\JJ	.	.	.	.	.	.	.	.	.	.	.	.	.	.	.	.
16FF\LL	.	16ff\LL	.	.	.	.	.	.	.	.	.	.	.	.	.	.	.	.
16AA\	.	16cc\	.	.	.	.	.	.	.	.	.	.	.	.	.	.	.	.
16C\	.	16a\	.	.	.	.	.	.	.	.	.	.	.	.	.	.	.	.
16F\JJ	.	16f\JJ	.	.	.	.	.	.	.	.	.	.	.	.	.	.	.	.
16FF\LL	.	16ff\LL	.	8F\	to-	.	8A\	to-	.	8cc\	to-	.	8ff\	to-	.	.	.	.
16AA\	.	16cc\	.	.	.	.	.	.	.	.	.	.	.	.	.	.	.	.
16C\	.	16a\	.	8F\	-bie	.	8A\	-bie	.	8cc\	-bie	.	8ff\	-bie	.	.	.	.
16F\JJ	.	16f\JJ	[[	.	.	.	.	.	.	.	.	.	.	.	.	.	.	.
=46	=46	=46	=46	=46	=46	=46	=46	=46	=46	=46	=46	=46	=46	=46	=46	=46	=46	=46
!	!	!	!	!	!	!LO:DY:a	!	!	!LO:DY:a	!	!	!LO:DY:a	!	!	!LO:DY:a	!	!	!
!	!	!	!LO:DY:b	!	!	!	!	!	!	!	!	!	!	!	!	!	!	!
16AAA/LL	.	(2.a^<\ 2.cc#X 2.ee 2.aa	sf	[2.F\	śmierć!	f	(2.A\	śmierć!	f	[2.cc#X\	śmierć!	f	[2.aa\	śmierć!	f	2.ryy	.	.
16CC#X/	.	.	.	.	.	.	.	.	.	.	.	.	.	.	.	.	.	.
16EE/	.	.	.	.	.	.	.	.	.	.	.	.	.	.	.	.	.	.
16AA/JJ	.	.	.	.	.	.	.	.	.	.	.	.	.	.	.	.	.	.
16AAA/LL	.	.	.	.	.	.	.	.	.	.	.	.	.	.	.	.	.	.
16CC#/	.	.	.	.	.	.	.	.	.	.	.	.	.	.	.	.	.	.
16EE/	.	.	.	.	.	.	.	.	.	.	.	.	.	.	.	.	.	.
16AA/JJ	.	.	.	.	.	.	.	.	.	.	.	.	.	.	.	.	.	.
16AAA/LL	.	.	.	.	.	.	.	.	.	.	.	.	.	.	.	.	.	.
16CC#/	.	.	.	.	.	.	.	.	.	.	.	.	.	.	.	.	.	.
16EE/	.	.	.	.	.	.	.	.	.	.	.	.	.	.	.	.	.	.
16AA/JJ	.	.	.	.	.	.	.	.	.	.	.	.	.	.	.	.	.	.
!!LO:LB:g=original	!	!	!	!	!	!	!	!	!	!	!	!	!	!	!	!	!	!
=47	=47	=47	=47	=47	=47	=47	=47	=47	=47	=47	=47	=47	=47	=47	=47	=47	=47	=47
16FF/LL	.	2f\) 2a 2cc 2ff	.	4F\]	.	.	4A\)	.	.	4cc#\]	.	.	4aa\]	.	.	2.ryy	.	.
16AA/	.	.	.	.	.	.	.	.	.	.	.	.	.	.	.	.	.	.
16C/	.	.	.	.	.	.	.	.	.	.	.	.	.	.	.	.	.	.
16F/JJ	.	.	.	.	.	.	.	.	.	.	.	.	.	.	.	.	.	.
16FF/LL	.	.	.	4r	.	.	4r	.	.	4r	.	.	4r	.	.	.	.	.
16AA/	.	.	.	.	.	.	.	.	.	.	.	.	.	.	.	.	.	.
16C/	.	.	.	.	.	.	.	.	.	.	.	.	.	.	.	.	.	.
16F/JJ	.	.	.	.	.	.	.	.	.	.	.	.	.	.	.	.	.	.
16FF/LL	.	8r	.	4r	.	.	4r	.	.	4r	.	.	4r	.	.	.	.	.
16AA/	.	.	.	.	.	.	.	.	.	.	.	.	.	.	.	.	.	.
16C/	.	16c/LL	.	.	.	.	.	.	.	.	.	.	.	.	.	.	.	.
16F/JJ	.	16cc/JJ	.	.	.	.	.	.	.	.	.	.	.	.	.	.	.	.
=48	=48	=48	=48	=48	=48	=48	=48	=48	=48	=48	=48	=48	=48	=48	=48	=48	=48	=48
*	*	*^	*	*	*	*	*	*	*	*	*	*	*	*	*	*	*	*
!	!	!LO:TX:b:i:t=marcato.	!	!	!	!	!LO:DY:a	!	!	!LO:DY:a	!	!	!LO:DY:a	!	!	!LO:DY:a	!	!	!
2CC/ 2C	.	4ryy	16c\LL	.	4c\	Idź	ff	4c\	Idź	ff	4cc\	Idź	ff	4cc\	Idź	ff	2.ryy	.	.
.	.	.	16cc\	.	.	.	.	.	.	.	.	.	.	.	.	.	.	.	.
.	.	.	16c\	.	.	.	.	.	.	.	.	.	.	.	.	.	.	.	.
.	.	.	16cc\JJ	.	.	.	.	.	.	.	.	.	.	.	.	.	.	.	.
.	.	8c^/	16c\LL	.	8c\	two-	.	8c\	two-	.	8cc\	two-	.	8cc\	two-	.	.	.	.
.	.	.	16cc\	.	.	.	.	.	.	.	.	.	.	.	.	.	.	.	.
.	.	8e^/	16e\	.	8en\	-je	.	8en\	-je	.	8een\	-je	.	8een\	-je	.	.	.	.
.	.	.	16ee\JJ	.	.	.	.	.	.	.	.	.	.	.	.	.	.	.	.
4C\ 4c	.	8d^/	16d\LL	.	8dn\	gus-	.	8dn\	gus-	.	8ddn\	gus-	.	8ddn\	gus-	.	.	.	.
.	.	.	16dd\	.	.	.	.	.	.	.	.	.	.	.	.	.	.	.	.
.	.	8c^/	16c\	.	8c\	-ła	.	8c\	-ła	.	8cc\	-ła	.	8cc\	-ła	.	.	.	.
.	.	.	16cc\JJ	.	.	.	.	.	.	.	.	.	.	.	.	.	.	.	.
*	*	*v	*v	*	*	*	*	*	*	*	*	*	*	*	*	*	*	*	*
=49	=49	=49	=49	=49	=49	=49	=49	=49	=49	=49	=49	=49	=49	=49	=49	=49	=49	=49
2BBn\ 2Bn	.	16d\LL	.	2Bn\	nieść	.	2Bn\	nieść	.	2ddn\	nieść	.	2ddn\	nieść	.	2.ryy	.	.
.	.	16dd\	.	.	.	.	.	.	.	.	.	.	.	.	.	.	.	.
.	.	16d\	.	.	.	.	.	.	.	.	.	.	.	.	.	.	.	.
.	.	16dd\JJ	.	.	.	.	.	.	.	.	.	.	.	.	.	.	.	.
.	.	16d\LL	.	.	.	.	.	.	.	.	.	.	.	.	.	.	.	.
.	.	16dd\	.	.	.	.	.	.	.	.	.	.	.	.	.	.	.	.
.	.	16d\	.	.	.	.	.	.	.	.	.	.	.	.	.	.	.	.
.	.	16dd\JJ	.	.	.	.	.	.	.	.	.	.	.	.	.	.	.	.
4BB-X\ 4B-X	.	16e\LL	.	4B-X\	tam	.	4B-X\	tam	.	4cc\	tam	.	4een\	tam	.	.	.	.
.	.	16ee\	.	.	.	.	.	.	.	.	.	.	.	.	.	.	.	.
.	.	16e\	.	.	.	.	.	.	.	.	.	.	.	.	.	.	.	.
.	.	16ee\JJ	.	.	.	.	.	.	.	.	.	.	.	.	.	.	.	.
=50	=50	=50	=50	=50	=50	=50	=50	=50	=50	=50	=50	=50	=50	=50	=50	=50	=50	=50
2AA\ 2A	.	16f\LL	.	2A\	gdzie	.	2A\	gdzie	.	2cc\	gdzie	.	2ff\	gdzie	.	2.ryy	.	.
.	.	16ff\	.	.	.	.	.	.	.	.	.	.	.	.	.	.	.	.
.	.	16f\	.	.	.	.	.	.	.	.	.	.	.	.	.	.	.	.
.	.	16ff\JJ	.	.	.	.	.	.	.	.	.	.	.	.	.	.	.	.
.	.	16f\LL	.	.	.	.	.	.	.	.	.	.	.	.	.	.	.	.
.	.	16ff\	.	.	.	.	.	.	.	.	.	.	.	.	.	.	.	.
.	.	16f\	.	.	.	.	.	.	.	.	.	.	.	.	.	.	.	.
.	.	16ff\JJ	.	.	.	.	.	.	.	.	.	.	.	.	.	.	.	.
4EE/ 4E	.	16g\LL 16cc	.	4E\	le-	.	4B-\	le-	.	4ee\	le	.	4gg\	le-	.	.	.	.
.	.	16gg\	.	.	.	.	.	.	.	.	.	.	.	.	.	.	.	.
.	.	16g\ 16cc	.	.	.	.	.	.	.	.	.	.	.	.	.	.	.	.
.	.	16gg\JJ	.	.	.	.	.	.	.	.	.	.	.	.	.	.	.	.
!!LO:LB:g=original	!	!	!	!	!	!	!	!	!	!	!	!	!	!	!	!	!	!
!!LO:PB:g=original	!	!	!	!	!	!	!	!	!	!	!	!	!	!	!	!	!	!
=51	=51	=51	=51	=51	=51	=51	=51	=51	=51	=51	=51	=51	=51	=51	=51	=51	=51	=51
2FF/ 2F	.	16a\LL 16cc	.	2F\	-chic-	.	(2c\	-chic-	.	[2ff\	-chic-	.	(2aa\	-chic-	.	2.ryy	.	.
.	.	16aa\	.	.	.	.	.	.	.	.	.	.	.	.	.	.	.	.
.	.	16a\ 16cc	.	.	.	.	.	.	.	.	.	.	.	.	.	.	.	.
.	.	16aa\JJ	.	.	.	.	.	.	.	.	.	.	.	.	.	.	.	.
.	.	16a\LL 16cc	.	.	.	.	.	.	.	.	.	.	.	.	.	.	.	.
.	.	16aa\	.	.	.	.	.	.	.	.	.	.	.	.	.	.	.	.
.	.	16a\ 16cc	.	.	.	.	.	.	.	.	.	.	.	.	.	.	.	.
.	.	16aa\JJ	.	.	.	.	.	.	.	.	.	.	.	.	.	.	.	.
4AAA^>/ 4AA	.	16f\LL	.	4AA/	-kie	.	8A\)	.	.	8ff\]	.	.	8ff\)	.	.	.	.	.
.	.	16ff\	.	.	.	.	.	.	.	.	.	.	.	.	.	.	.	.
.	.	16f\	.	.	.	.	8A\	-kie	.	8cc\	-kie	.	8ff\	-kie	.	.	.	.
.	.	16ff\JJ	.	.	.	.	.	.	.	.	.	.	.	.	.	.	.	.
=52	=52	=52	=52	=52	=52	=52	=52	=52	=52	=52	=52	=52	=52	=52	=52	=52	=52	=52
!	!LO:DY:a	!	!	!	!	!	!	!	!	!	!	!	!	!	!	!	!	!
2BBB-/ 2BB-	sf	16g\LL 16b- 16dd	.	2BB-/	kra-	.	[2B-\	kra-	.	[2dd\	kra-	.	(2ee\	kra-	.	2.ryy	.	.
.	.	16gg\	.	.	.	.	.	.	.	.	.	.	.	.	.	.	.	.
.	.	16g\ 16b- 16dd	.	.	.	.	.	.	.	.	.	.	.	.	.	.	.	.
.	.	16gg\JJ	.	.	.	.	.	.	.	.	.	.	.	.	.	.	.	.
.	.	16g\LL 16b- 16dd	.	.	.	.	.	.	.	.	.	.	.	.	.	.	.	.
.	.	16gg\	.	.	.	.	.	.	.	.	.	.	.	.	.	.	.	.
.	.	16g\ 16b- 16dd	.	.	.	.	.	.	.	.	.	.	.	.	.	.	.	.
.	.	16gg\JJ	.	.	.	.	.	.	.	.	.	.	.	.	.	.	.	.
8BBB-/L 8BB-	.	16g\LL 16b- 16dd	.	4BB-/	-je!	.	8.B-\]	.	.	8.dd\]	.	.	8.gg\)	.	.	.	.	.
.	.	16gg\	.	.	.	.	.	.	.	.	.	.	.	.	.	.	.	.
8BBB-/J 8BB-	.	16g\ 16b- 16dd	.	.	.	.	.	.	.	.	.	.	.	.	.	.	.	.
.	.	16gg\JJ	.	.	.	.	16B-\	-je!	.	16dd\	-je!	.	16gg\	-je!	.	.	.	.
=53	=53	=53	=53	=53	=53	=53	=53	=53	=53	=53	=53	=53	=53	=53	=53	=53	=53	=53
2CC/ 2C	.	16g\LL 16b-	.	2C/	Śmierć	.	2B-\	Śmierć	.	2cc\	Śmierć	.	2ee\	Śmierć	.	2.ryy	.	.
.	.	16ee\	.	.	.	.	.	.	.	.	.	.	.	.	.	.	.	.
.	.	16g\ 16b-	.	.	.	.	.	.	.	.	.	.	.	.	.	.	.	.
.	.	16ee\JJ	.	.	.	.	.	.	.	.	.	.	.	.	.	.	.	.
.	.	16g\LL 16b-	.	.	.	.	.	.	.	.	.	.	.	.	.	.	.	.
.	.	16ee\	.	.	.	.	.	.	.	.	.	.	.	.	.	.	.	.
.	.	16g\ 16b-	.	.	.	.	.	.	.	.	.	.	.	.	.	.	.	.
.	.	16ee\JJ	.	.	.	.	.	.	.	.	.	.	.	.	.	.	.	.
8CC/L 8C	.	16g\LL 16b-	.	8C/	to-	.	8B-\	to-	.	8cc\	to-	.	8ee\	to-	.	.	.	.
.	.	16ee\	.	.	.	.	.	.	.	.	.	.	.	.	.	.	.	.
8CC/J 8C	.	16g\ 16b-	.	8C/	-bie	.	8B-\	-bie	.	8cc\	-bie	.	8ee\	-bie	.	.	.	.
.	.	16ee\JJ	.	.	.	.	.	.	.	.	.	.	.	.	.	.	.	.
=54	=54	=54	=54	=54	=54	=54	=54	=54	=54	=54	=54	=54	=54	=54	=54	=54	=54	=54
!	!	!	!	!	!	!	!	!	!LO:DY:a	!	!	!LO:DY:a	!	!	!LO:DY:a	!	!	!
4.FFF\ 4.FF	.	8f\ 8a 8ff	.	2F\	śmierć!	f	2A\	śmierć!	f	2ff\	śmierć!	f	2ff\	śmierć!	f	2.ryy	.	.
.	.	16F</LL 16f	.	.	.	.	.	.	.	.	.	.	.	.	.	.	.	.
.	.	16F</JJ 16f	.	.	.	.	.	.	.	.	.	.	.	.	.	.	.	.
.	.	8F</L 8f	.	.	.	.	.	.	.	.	.	.	.	.	.	.	.	.
8FFF\L 8FF	.	8F</ 8f	.	.	.	.	.	.	.	.	.	.	.	.	.	.	.	.
8GGG\ 8GG	.	8F</ 8f	.	4r	.	.	4r	.	.	4r	.	.	4r	.	.	.	.	.
8AAA\J 8AA	.	8F</J 8f	.	.	.	.	.	.	.	.	.	.	.	.	.	.	.	.
=55	=55	=55	=55	=55	=55	=55	=55	=55	=55	=55	=55	=55	=55	=55	=55	=55	=55	=55
!	!	!	!	!LO:TX:a:i:t=Ś. WOJCIECH.	!	!	!	!	!	!	!	!	!	!	!	!	!	!
8BBB-\L 8BB-	.	8F</L 8f	.	4r	.	.	2.r	.	.	2.r	.	.	2.r	.	.	2.ryy	.	.
8CC\ 8C	.	8F</ 8f	.	.	.	.	.	.	.	.	.	.	.	.	.	.	.	.
8CC#X\ 8C#X	.	8F</ 8f	.	4r	.	.	.	.	.	.	.	.	.	.	.	.	.	.
8DD\ 8D	.	8F</ 8f	.	.	.	.	.	.	.	.	.	.	.	.	.	.	.	.
8DD#X\ 8D#X	.	8F</ 8f	.	8r	.	.	.	.	.	.	.	.	.	.	.	.	.	.
8EE\J 8E	.	8F</J 8f	.	8A\	Zos	.	.	.	.	.	.	.	.	.	.	.	.	.
*	*	*	*	*	*	*	*	*	*	*	*	*	*	*	*	*clefF4	*	*
!!LO:LB:g=original	!	!	!	!	!	!	!	!	!	!	!	!	!	!	!	!	!	!
=56	=56	=56	=56	=56	=56	=56	=56	=56	=56	=56	=56	=56	=56	=56	=56	=56	=56	=56
*	*	*tremolo	*	*	*	*	*	*	*	*	*	*	*	*	*	*	*	*
!	!	!	!LO:DY:b	!	!	!	!	!	!	!	!	!	!	!	!	!	!	!
2.FF/ 2.F	.	16c/LL 16d#X	ff	2.ryy	.	.	2.ryy	.	.	2.ryy	.	.	2.ryy	.	.	[2.d#X\	ta-	.
.	.	16A/	.	.	.	.	.	.	.	.	.	.	.	.	.	.	.	.
.	.	16c/ 16d#	.	.	.	.	.	.	.	.	.	.	.	.	.	.	.	.
.	.	16A/	.	.	.	.	.	.	.	.	.	.	.	.	.	.	.	.
.	.	16c/ 16d#	.	.	.	.	.	.	.	.	.	.	.	.	.	.	.	.
.	.	16A/	.	.	.	.	.	.	.	.	.	.	.	.	.	.	.	.
.	.	16c/ 16d#	.	.	.	.	.	.	.	.	.	.	.	.	.	.	.	.
.	.	16A/	.	.	.	.	.	.	.	.	.	.	.	.	.	.	.	.
.	.	16c/ 16d#	.	.	.	.	.	.	.	.	.	.	.	.	.	.	.	.
.	.	16A/	.	.	.	.	.	.	.	.	.	.	.	.	.	.	.	.
.	.	16c/ 16d#	.	.	.	.	.	.	.	.	.	.	.	.	.	.	.	.
.	.	16A/JJ	.	.	.	.	.	.	.	.	.	.	.	.	.	.	.	.
=57	=57	=57	=57	=57	=57	=57	=57	=57	=57	=57	=57	=57	=57	=57	=57	=57	=57	=57
2FF/ 2F	.	16c/LL 16d#X	.	2.ryy	.	.	2.ryy	.	.	2.ryy	.	.	2.ryy	.	.	(2d#\]	.	.
.	.	16A/	.	.	.	.	.	.	.	.	.	.	.	.	.	.	.	.
.	.	16c/ 16d#	.	.	.	.	.	.	.	.	.	.	.	.	.	.	.	.
.	.	16A/	.	.	.	.	.	.	.	.	.	.	.	.	.	.	.	.
.	.	16c/ 16d#	.	.	.	.	.	.	.	.	.	.	.	.	.	.	.	.
.	.	16A/	.	.	.	.	.	.	.	.	.	.	.	.	.	.	.	.
.	.	16c/ 16d#	.	.	.	.	.	.	.	.	.	.	.	.	.	.	.	.
.	.	16A/JJ	.	.	.	.	.	.	.	.	.	.	.	.	.	.	.	.
*	*	*Xtremolo	*	*	*	*	*	*	*	*	*	*	*	*	*	*	*	*
4EE/ 4E	.	16c/LL 16e	.	.	.	.	.	.	.	.	.	.	.	.	.	4e\)	.	.
.	.	16A/	.	.	.	.	.	.	.	.	.	.	.	.	.	.	.	.
.	.	16c/ 16e	.	.	.	.	.	.	.	.	.	.	.	.	.	.	.	.
.	.	16A/JJ	.	.	.	.	.	.	.	.	.	.	.	.	.	.	.	.
=58	=58	=58	=58	=58	=58	=58	=58	=58	=58	=58	=58	=58	=58	=58	=58	=58	=58	=58
2.EE/ 2.E	.	16Bn/LL 16e	.	2.ryy	.	.	2.ryy	.	.	2.ryy	.	.	2.ryy	.	.	2.E\	-ję.	.
.	.	16A/	.	.	.	.	.	.	.	.	.	.	.	.	.	.	.	.
.	.	16B/ 16e	.	.	.	.	.	.	.	.	.	.	.	.	.	.	.	.
.	.	16A/JJ	.	.	.	.	.	.	.	.	.	.	.	.	.	.	.	.
.	.	16B/LL 16e	.	.	.	.	.	.	.	.	.	.	.	.	.	.	.	.
.	.	16A/	.	.	.	.	.	.	.	.	.	.	.	.	.	.	.	.
.	.	16B/ 16e	.	.	.	.	.	.	.	.	.	.	.	.	.	.	.	.
.	.	16A/JJ	.	.	.	.	.	.	.	.	.	.	.	.	.	.	.	.
.	.	16B/LL 16e	.	.	.	.	.	.	.	.	.	.	.	.	.	.	.	.
.	.	16A/	.	.	.	.	.	.	.	.	.	.	.	.	.	.	.	.
.	.	16B/ 16e	.	.	.	.	.	.	.	.	.	.	.	.	.	.	.	.
.	.	16A/JJ	.	.	.	.	.	.	.	.	.	.	.	.	.	.	.	.
=59	=59	=59	=59	=59	=59	=59	=59	=59	=59	=59	=59	=59	=59	=59	=59	=59	=59	=59
2EE/ 2E	.	16G#X/LL 16Bn	.	2.ryy	.	.	2.ryy	.	.	2.ryy	.	.	2.ryy	.	.	2.r	.	.
.	.	16e/	.	.	.	.	.	.	.	.	.	.	.	.	.	.	.	.
.	.	16G#/ 16B	.	.	.	.	.	.	.	.	.	.	.	.	.	.	.	.
.	.	16e/JJ	.	.	.	.	.	.	.	.	.	.	.	.	.	.	.	.
.	.	16G#/LL 16B	.	.	.	.	.	.	.	.	.	.	.	.	.	.	.	.
.	.	16e/	.	.	.	.	.	.	.	.	.	.	.	.	.	.	.	.
.	.	16G#/ 16B	.	.	.	.	.	.	.	.	.	.	.	.	.	.	.	.
.	.	16e/JJ	.	.	.	.	.	.	.	.	.	.	.	.	.	.	.	.
4DD/ 4D	.	16G#/LL 16B	.	.	.	.	.	.	.	.	.	.	.	.	.	.	.	.
.	.	16e/	.	.	.	.	.	.	.	.	.	.	.	.	.	.	.	.
.	.	16G#/ 16B	.	.	.	.	.	.	.	.	.	.	.	.	.	.	.	.
.	.	16f/JJ	.	.	.	.	.	.	.	.	.	.	.	.	.	.	.	.
=60	=60	=60	=60	=60	=60	=60	=60	=60	=60	=60	=60	=60	=60	=60	=60	=60	=60	=60
!	!	!LO:TX:a:i:t=vivace.	!	!	!	!	!	!	!	!	!	!	!	!	!	!	!	!
!	!	!	!LO:DY:b	!	!	!	!	!	!	!	!	!	!	!	!	!	!	!
16CC#X/LL	.	8G^/L 8B-X 8e	sf	2.ryy	.	.	2.ryy	.	.	2.ryy	.	.	2.ryy	.	.	2.r	.	.
16C#X/	.	.	.	.	.	.	.	.	.	.	.	.	.	.	.	.	.	.
16CC#/	.	8B-/	.	.	.	.	.	.	.	.	.	.	.	.	.	.	.	.
16C#/JJ	.	.	.	.	.	.	.	.	.	.	.	.	.	.	.	.	.	.
!	!	!	!LO:HP:b	!	!	!	!	!	!	!	!	!	!	!	!	!	!	!
16CC#/LL	.	8c#X/	<	.	.	.	.	.	.	.	.	.	.	.	.	.	.	.
16C#/	.	.	.	.	.	.	.	.	.	.	.	.	.	.	.	.	.	.
16CC#/	.	8e/	.	.	.	.	.	.	.	.	.	.	.	.	.	.	.	.
16C#/JJ	.	.	.	.	.	.	.	.	.	.	.	.	.	.	.	.	.	.
16CC#/LL	.	8g/	.	.	.	.	.	.	.	.	.	.	.	.	.	.	.	.
16C#/	.	.	.	.	.	.	.	.	.	.	.	.	.	.	.	.	.	.
16CC#/	.	8b-/J	.	.	.	.	.	.	.	.	.	.	.	.	.	.	.	.
16C#/JJ	.	.	.	.	.	.	.	.	.	.	.	.	.	.	.	.	.	.
=61	=61	=61	=61	=61	=61	=61	=61	=61	=61	=61	=61	=61	=61	=61	=61	=61	=61	=61
16CC#X/LL	.	8cc#X\L	.	2.ryy	.	.	2.ryy	.	.	2.ryy	.	.	2.ryy	.	.	2.r	.	.
16C#X/	.	.	.	.	.	.	.	.	.	.	.	.	.	.	.	.	.	.
16CC#/	.	8ee\	.	.	.	.	.	.	.	.	.	.	.	.	.	.	.	.
16C#/JJ	.	.	.	.	.	.	.	.	.	.	.	.	.	.	.	.	.	.
16CC#/LL	.	8gg\	.	.	.	.	.	.	.	.	.	.	.	.	.	.	.	.
16C#/	.	.	.	.	.	.	.	.	.	.	.	.	.	.	.	.	.	.
16CC#/	.	8bb-X\	.	.	.	.	.	.	.	.	.	.	.	.	.	.	.	.
16C#/JJ	.	.	.	.	.	.	.	.	.	.	.	.	.	.	.	.	.	.
16CC#/LL	.	8ccc#X\	.	.	.	.	.	.	.	.	.	.	.	.	.	.	.	.
16C#/	.	.	.	.	.	.	.	.	.	.	.	.	.	.	.	.	.	.
16CC#/	.	8eee\J	[[	.	.	.	.	.	.	.	.	.	.	.	.	.	.	.
16C#/JJ	.	.	.	.	.	.	.	.	.	.	.	.	.	.	.	.	.	.
*	*	*	*	*	*	*	*	*	*	*	*	*	*	*	*	*clefG2	*	*
=62	=62	=62	=62	=62	=62	=62	=62	=62	=62	=62	=62	=62	=62	=62	=62	=62	=62	=62
8.CCn\L 8.Cn	.	8.eee-X\L	.	2.ryy	.	.	2.ryy	.	.	2.ryy	.	.	2.ryy	.	.	4r	.	.
16C\Jk 16c	.	16e-X\Jk 16a-X 16ee-X	.	.	.	.	.	.	.	.	.	.	.	.	.	.	.	.
!	!	!	!LO:DY:b	!	!	!	!	!	!	!	!	!	!	!	!	!	!	!
[2C\ [2c	.	[2e-\ [2a- [2ee-	sf	.	.	.	.	.	.	.	.	.	.	.	.	4r	.	.
.	.	.	.	.	.	.	.	.	.	.	.	.	.	.	.	8r	.	.
!	!	!	!	!	!	!	!	!	!	!	!	!	!	!	!	!LO:TX:a:i:t=BORUS.	!	!
.	.	.	.	.	.	.	.	.	.	.	.	.	.	.	.	8a-X/	Więc	.
=63	=63	=63	=63	=63	=63	=63	=63	=63	=63	=63	=63	=63	=63	=63	=63	=63	=63	=63
4C\] 4c]	.	4e-X\] 4a-X] 4ee-X]	.	2.ryy	.	.	2.ryy	.	.	2.ryy	.	.	2.ryy	.	.	4.ee-X\	od-	.
4r	.	4r	.	.	.	.	.	.	.	.	.	.	.	.	.	.	.	.
.	.	.	.	.	.	.	.	.	.	.	.	.	.	.	.	8ee-\	-daj	.
4r	.	4r	.	.	.	.	.	.	.	.	.	.	.	.	.	8ee-\	bo-	.
.	.	.	.	.	.	.	.	.	.	.	.	.	.	.	.	8dd-X\	-gom	.
=64	=64	=64	=64	=64	=64	=64	=64	=64	=64	=64	=64	=64	=64	=64	=64	=64	=64	=64
4r	.	4r	.	2.ryy	.	.	2.ryy	.	.	2.ryy	.	.	2.ryy	.	.	2cc\	cześć!	.
4r	.	4r	.	.	.	.	.	.	.	.	.	.	.	.	.	.	.	.
!	!	!	!LO:DY:b	!	!	!	!	!	!	!	!	!	!	!	!	!	!	!
16C\LL 16E-X 16F#X	.	16ff#X\LL	f	.	.	.	.	.	.	.	.	.	.	.	.	4r	.	.
16An\	.	16ee\	.	.	.	.	.	.	.	.	.	.	.	.	.	.	.	.
16C\ 16E- 16F#	.	16ff#\	.	.	.	.	.	.	.	.	.	.	.	.	.	.	.	.
16A\JJ	.	16gg#X\JJ	.	.	.	.	.	.	.	.	.	.	.	.	.	.	.	.
*	*	*	*	*	*	*	*	*	*	*	*	*	*	*	*	*clefF4	*	*
!!LO:LB:g=original	!	!	!	!	!	!	!	!	!	!	!	!	!	!	!	!	!	!
=65	=65	=65	=65	=65	=65	=65	=65	=65	=65	=65	=65	=65	=65	=65	=65	=65	=65	=65
16C\LL 16E-X 16Fn	.	8aan\L	.	2.ryy	.	.	2.ryy	.	.	2.ryy	.	.	2.ryy	.	.	2.r	.	.
16An\	.	.	.	.	.	.	.	.	.	.	.	.	.	.	.	.	.	.
16C\ 16E- 16F	.	8a\	.	.	.	.	.	.	.	.	.	.	.	.	.	.	.	.
16A\JJ	.	.	.	.	.	.	.	.	.	.	.	.	.	.	.	.	.	.
16C\LL 16E- 16F	.	8cc\	.	.	.	.	.	.	.	.	.	.	.	.	.	.	.	.
16A\	.	.	.	.	.	.	.	.	.	.	.	.	.	.	.	.	.	.
16C\ 16E- 16F	.	8ee-X\	.	.	.	.	.	.	.	.	.	.	.	.	.	.	.	.
16A\JJ	.	.	.	.	.	.	.	.	.	.	.	.	.	.	.	.	.	.
16C\LL 16E- 16F	.	8ff#X\	.	.	.	.	.	.	.	.	.	.	.	.	.	.	.	.
16A\	.	.	.	.	.	.	.	.	.	.	.	.	.	.	.	.	.	.
16C\ 16E- 16F	.	8aa\J	.	.	.	.	.	.	.	.	.	.	.	.	.	.	.	.
16A\JJ	.	.	.	.	.	.	.	.	.	.	.	.	.	.	.	.	.	.
=66	=66	=66	=66	=66	=66	=66	=66	=66	=66	=66	=66	=66	=66	=66	=66	=66	=66	=66
*	*	*8va	*	*	*	*	*	*	*	*	*	*	*	*	*	*	*	*
!	!	!	!	!	!	!	!	!	!	!	!	!	!	!	!	!LO:TX:a:i:t=Ś. WOJCIECH.	!	!
16C\LL 16E-X 16Fn	.	8ccc\L	.	2.ryy	.	.	2.ryy	.	.	2.ryy	.	.	2.ryy	.	.	4r	.	.
16A\	.	.	.	.	.	.	.	.	.	.	.	.	.	.	.	.	.	.
16C\ 16E- 16F	.	8eee-X\	.	.	.	.	.	.	.	.	.	.	.	.	.	.	.	.
16A\JJ	.	.	.	.	.	.	.	.	.	.	.	.	.	.	.	.	.	.
16C\LL 16E- 16F	.	8fff#X\	.	.	.	.	.	.	.	.	.	.	.	.	.	4r	.	.
16A\	.	.	.	.	.	.	.	.	.	.	.	.	.	.	.	.	.	.
16C\ 16E- 16F	.	8eee-\	.	.	.	.	.	.	.	.	.	.	.	.	.	.	.	.
16A\JJ	.	.	.	.	.	.	.	.	.	.	.	.	.	.	.	.	.	.
16C\LL 16E- 16F	.	8fff#\	.	.	.	.	.	.	.	.	.	.	.	.	.	4A\	Nie,	.
16A\	.	.	.	.	.	.	.	.	.	.	.	.	.	.	.	.	.	.
16C\ 16E- 16F	.	8aaa\J	.	.	.	.	.	.	.	.	.	.	.	.	.	.	.	.
16A\JJ	.	.	.	.	.	.	.	.	.	.	.	.	.	.	.	.	.	.
=67	=67	=67	=67	=67	=67	=67	=67	=67	=67	=67	=67	=67	=67	=67	=67	=67	=67	=67
!	!	!	!LO:HP:b:t=decres.	!	!	!	!	!	!	!	!	!	!	!	!	!	!	!
16C#X\LL 16En 16G	.	8bbb-X\L	>	2.ryy	.	.	2.ryy	.	.	2.ryy	.	.	2.ryy	.	.	[2.B-^\	nig-	.
16B-X\	.	.	.	.	.	.	.	.	.	.	.	.	.	.	.	.	.	.
16Cn\ 16E 16G	.	8ggg\	.	.	.	.	.	.	.	.	.	.	.	.	.	.	.	.
16B-\JJ	.	.	.	.	.	.	.	.	.	.	.	.	.	.	.	.	.	.
16C\LL 16E 16G	.	8eeen\	.	.	.	.	.	.	.	.	.	.	.	.	.	.	.	.
16B-\	.	.	.	.	.	.	.	.	.	.	.	.	.	.	.	.	.	.
16C\ 16E 16G	.	8ccc#X\	.	.	.	.	.	.	.	.	.	.	.	.	.	.	.	.
16B-\JJ	.	.	.	.	.	.	.	.	.	.	.	.	.	.	.	.	.	.
16C\LL 16E 16G	.	8bb-\	.	.	.	.	.	.	.	.	.	.	.	.	.	.	.	.
16B-\	.	.	.	.	.	.	.	.	.	.	.	.	.	.	.	.	.	.
16C\ 16E 16G	.	8gg\J	.	.	.	.	.	.	.	.	.	.	.	.	.	.	.	.
16B-\JJ	.	.	.	.	.	.	.	.	.	.	.	.	.	.	.	.	.	.
*	*	*X8va	*	*	*	*	*	*	*	*	*	*	*	*	*	*	*	*
=68	=68	=68	=68	=68	=68	=68	=68	=68	=68	=68	=68	=68	=68	=68	=68	=68	=68	=68
16D\LL 16G	.	8dd\L	.	2.ryy	.	.	2.ryy	.	.	2.ryy	.	.	2.ryy	.	.	2B-\]	-dy!	.
16B-\	.	.	.	.	.	.	.	.	.	.	.	.	.	.	.	.	.	.
!	!	!LO:TX:b:i:t=rall.	!	!	!	!	!	!	!	!	!	!	!	!	!	!	!	!
16D\ 16G	.	8gg\	.	.	.	.	.	.	.	.	.	.	.	.	.	.	.	.
16B-\JJ	.	.	.	.	.	.	.	.	.	.	.	.	.	.	.	.	.	.
16D\LL 16G	.	8bb-\	.	.	.	.	.	.	.	.	.	.	.	.	.	.	.	.
16B-\	.	.	.	.	.	.	.	.	.	.	.	.	.	.	.	.	.	.
16D\ 16G	.	8ddd\	.	.	.	.	.	.	.	.	.	.	.	.	.	.	.	.
16B-\JJ	.	.	.	.	.	.	.	.	.	.	.	.	.	.	.	.	.	.
16D\LL 16F#X 16A	.	8ee-X^\ 8eee-X	.	.	.	.	.	.	.	.	.	.	.	.	.	4r	.	.
16c\	.	.	.	.	.	.	.	.	.	.	.	.	.	.	.	.	.	.
16D\ 16F# 16A	.	8dd\J 8ddd	.	.	.	.	.	.	.	.	.	.	.	.	.	.	.	.
16c\JJ	.	.	.	.	.	.	.	.	.	.	.	.	.	.	.	.	.	.
==	==	==	==	==	==	==	==	==	==	==	==	==	==	==	==	==	==	==
*-	*-	*-	*-	*-	*-	*-	*-	*-	*-	*-	*-	*-	*-	*-	*-	*-	*-	*-
!!!system-decoration: s1[(s2,s3,s4,s5)]{s6,s7}
!!!RDF**kern: > = above
!!!RDF**kern: < = below
!!!ENC: Andrzej Gręziak
!!!END: 2022-02-24
!!!ENC: Jan Barakat
!!!END: 2022-03-01
